X:1
T:Title
%%score ( 1 2 ) { 3 | 4 }
L:1/8
Q:1/4=100
M:4/4
K:Eb
V:1 treble nm="Grand Piano, Soprano"
V:2 treble 
V:3 bass nm="Choir Pad, Room in Heaven for Thee"
V:4 bass 
V:1
 [GB] [GB]2 [EG] [FA] [GB]2 [GB] | [GB] [Ac]2 [Ac]- [Ac] [GB]3 | %2
w: By~Peter~Philip~Bilhorn * * * * *||
 [EG] [DB]2 [FA] [=EG] [FA]2 [GB]- | [GB] [EG]3- [EG]2- [EG]/ z/ z | %4
w: ||
 [GB] [GB]2 [EG] [FA] [GB]2 [EB] | [EB] [Ec]2 [Ed] [Ee] [EB]3 | [GB][GB] .[EG]2 [FA] [EG]2 F- | %7
w: |||
[M:6/8] [B,F] [B,E]2- [B,E]3- | [B,E] [DF]2- [DF] [DB]2 | [FA] [EG]2- [EG]2- [EG]/ z/ | %10
w: |||
 [EG] [EG]2 [EG] [E=A]2 | [Ec] B2- B-[A-B]>A | [AB] B2- [EB-][G-B]>G | [GB] c2- [Ec-][A-c]>A | %14
w: ||||
 [Ac] [GB]2 [EG] [EB]2 | [EG] [DF]2- [DF]2- [DF]/ z/ | [AB] B2- [EB-][G-B]>G | %17
w: |||
 [GB] c2- [Ec-][A-c]>A | [_Ge] [=GB]2 [EG] [DB]2 | [FA] [EG]2- [EG]3- | [EG]6 |] %21
w: ||||
V:2
 x8 | x8 | x8 | x8 | x8 | x8 | z4 z2 z D |[M:6/8] x6 | x6 | x6 | x6 | z D2- D z z | z G2 z3 | %13
 z A2 z3 | x6 | x6 | z G2 z3 | z A2 z3 | x6 | x6 | x6 |] %21
V:3
 B, E2 B, B, E2[K:treble] E | E E2 E- E E3 | B, B,2 B, B, B,2 B,- | B, B,3- B,2- B,/ z/ z | %4
 B, E2 B, B, E2 G, | G, A,2 A, A, G,3 | B,E .B,2 C B,2 A,- |[M:6/8] A, G,2- G,3- | G, B,2- B, B,2 | %9
 B, B,2- B,2- B,/ z/ | B, C2 C C2 | =A, B,2- B,2- B,/ z/ | z3 G, B,2 | z3[K:treble] C E2 | %14
 E E2 B,[K:bass] B,2 | B, B,2- B,2- B,/ z/ | z3 G, B,2 | z3[K:treble] C E2 | E E2 B,[K:bass] B,2 | %19
 B, B,2- B,3- | B,6 |] %21
V:4
 E, E,2 E, E, E,2 E, | E, A,2 A,- A, E,3 | E, B,,2 B,, B,, B,,2 B,,- | B,, E,3- E,2- E,/ z/ z | %4
 E, E,2 E, E, E,2 E, | E, A,,2 B,, C, E,3 | E,E, .E,2 A,, B,,2 B,,- |[M:6/8] B,, E,2- E,3- | %8
 E, B,,2- B,, B,,2 | D, E,2- E,2- E,/ z/ | E, C,2 C, F,2 | F, B,,2- B,,2- B,,/ z/ | z3 E, E,2 | %13
 z3 A, A,2 | A, E,2 E, G,2 | E, B,,2- B,,2- B,,/ z/ | z3 E, E,2 | z3 A, A,2 | =A, B,2 z B,,2 | %19
 B,, E,2- E,3- | E,6 |] %21

